public/svg/vscode.svg

<svg width="101" height="100" viewBox="0 0 101 100" fill="none" xmlns="http://www.w3.org/2000/svg">
  <path
    d="M1.60815 35.3304C1.60815 35.3304 -0.827478 33.5747 2.09527 31.2304L8.90487 25.1414C8.90487 25.1414 10.8534 23.0914 12.9135 24.8775L75.7526 72.4534V95.2671C75.7526 95.2671 75.7222 98.8495 71.1249 98.4537L1.60815 35.3304Z"
    fill="#2489CA" />
  <path
    d="M17.8051 50.0359L1.60815 64.7613C1.60815 64.7613 -0.0561979 65.9994 1.60815 68.2117L9.12815 75.0518C9.12815 75.0518 10.9143 76.9698 13.5529 74.7879L30.7241 61.7675L17.8051 50.0359Z"
    fill="#1070B3" />
  <path
    d="M46.2411 50.1576L75.9456 27.4757L75.7528 4.78377C75.7528 4.78377 74.4842 -0.168684 70.2523 2.40903L30.7241 38.3853L46.2411 50.1576Z"
    fill="#0877B9" />
  <path
    d="M71.1251 98.4844C72.8503 100.25 74.9409 99.6718 74.9409 99.6718L98.0895 88.2649C101.053 86.2454 100.637 83.7387 100.637 83.7387V15.6222C100.637 12.6284 97.5719 11.5933 97.5719 11.5933L77.5085 1.92182C73.1243 -0.787823 70.2523 2.40894 70.2523 2.40894C70.2523 2.40894 73.9464 -0.249955 75.7528 4.78368V94.8512C75.7528 95.4703 75.6208 96.0792 75.357 96.6272C74.8293 97.6928 73.6825 98.6874 70.9323 98.2713L71.1251 98.4844Z"
    fill="#3C99D4" />
</svg>

<svg width="101" height="100" viewBox="0 0 101 100" fill="none" xmlns="http://www.w3.org/2000/svg"><path d="M1.608 35.33s-2.435-1.755.487-4.1l6.81-6.089s1.948-2.05 4.009-.263l62.839 47.575v22.814s-.03 3.583-4.628 3.187L1.608 35.33z" fill="#2489CA"/><path d="M17.805 50.036 1.608 64.76s-1.664 1.238 0 3.45l7.52 6.84s1.786 1.919 4.425-.263l17.171-13.02-12.919-11.732z" fill="#1070B3"/><path d="m46.241 50.158 29.705-22.682-.193-22.692s-1.269-4.953-5.5-2.375l-39.53 35.976L46.24 50.158z" fill="#0877B9"/><path d="M71.125 98.484c1.725 1.766 3.816 1.188 3.816 1.188l23.148-11.407c2.964-2.02 2.548-4.526 2.548-4.526V15.622c0-2.994-3.065-4.029-3.065-4.029L77.508 1.922c-4.384-2.71-7.256.487-7.256.487s3.694-2.659 5.5 2.375V94.85c0 .62-.131 1.228-.395 1.776-.528 1.066-1.674 2.06-4.425 1.644l.193.213z" fill="#3C99D4"/></svg>
